client/public/img/game/weapons/g19.svg

<?xml version="1.0" encoding="UTF-8" standalone="no"?>
<svg
   width="110"
   height="110"
   viewBox="0 0 110 110"
   fill="none"
   version="1.1"
   id="svg61"
   sodipodi:docname="g19.svg"
   inkscape:version="1.1.2 (0a00cf5339, 2022-02-04)"
   xmlns:inkscape="http://www.inkscape.org/namespaces/inkscape"
   xmlns:sodipodi="http://sodipodi.sourceforge.net/DTD/sodipodi-0.dtd"
   xmlns="http://www.w3.org/2000/svg"
   xmlns:svg="http://www.w3.org/2000/svg">
  <sodipodi:namedview
     id="namedview63"
     pagecolor="#505050"
     bordercolor="#ffffff"
     borderopacity="1"
     inkscape:pageshadow="0"
     inkscape:pageopacity="0"
     inkscape:pagecheckerboard="1"
     showgrid="false"
     inkscape:zoom="7.9181818"
     inkscape:cx="54.936854"
     inkscape:cy="54.936854"
     inkscape:window-width="2560"
     inkscape:window-height="1372"
     inkscape:window-x="0"
     inkscape:window-y="0"
     inkscape:window-maximized="1"
     inkscape:current-layer="svg61" />
  <g
     clip-path="url(#clip0_619_1202)"
     id="g54"
     transform="matrix(0.8271478,0,0,0.8271478,11.164561,9.9999999)">
    <path
       d="m 92.488,2.65871 -2.7224,1.57176 3.6071,6.24763 2.7224,-1.57181 z"
       fill="#5c5c5c"
       stroke="#333333"
       stroke-width="4.2141"
       stroke-miterlimit="3.99393"
       id="path2" />
    <path
       d="m 96.2997,11.8821 -1.3612,0.7859 0.979,1.6957 1.3612,-0.7858 z"
       fill="#5c5c5c"
       stroke="#333333"
       stroke-width="4.2141"
       stroke-miterlimit="3.99393"
       id="path4" />
    <path
       d="m 10.5604,45.1936 1.7696,-1.0216 2.8341,4.9088 -4.1614,0.0225 z"
       fill="#5c5c5c"
       stroke="#333333"
       stroke-width="4.2141"
       stroke-miterlimit="3.99393"
       id="path6" />
    <path
       d="m 54.5844,49.8813 0.042,1.2253 c 0.0246,0.4617 0.5091,0.777 0.9432,0.5859 L 57.403,50.991 c 0.1361,-0.0786 0.3238,-0.0679 0.4918,0.0135 1.1444,0.4104 6.3828,1.7295 8.3792,0.5769 2.2686,-1.3098 -4.7551,-0.5867 -4.7551,-0.5867 0,0 -0.2448,1.9859 -5.4092,-2.7676 -4.7447,-4.3412 -2.124,0.5123 -1.6345,1.3602 0.0515,0.0893 0.103,0.1785 0.1092,0.294 z"
       fill="#4d4d4d"
       stroke="#333333"
       stroke-width="2.10601"
       stroke-miterlimit="3.99393"
       id="path8" />
    <path
       d="m 84.9502,6.41191 -1.0922,-2.9395 1.6788,-0.96925 2.6125,0.75272 c 0.3557,0.09215 0.4515,0.57237 0.0885,0.78193 z"
       fill="#5c5c5c"
       stroke="#333333"
       stroke-width="4.2141"
       stroke-miterlimit="3.99393"
       id="path10" />
    <path
       d="m 39.9288,100.239 -0.4405,4.895 c 0,0 -1.5204,2.187 1.0059,1.323 2.5263,-0.863 17.561,-8.3534 17.561,-8.3534 0,0 1.5572,-1.4941 0.7843,-2.8328 l -1.9581,-3.3916 z"
       fill="#525252"
       stroke="#333333"
       stroke-width="4.2141"
       stroke-miterlimit="3.99393"
       id="path12" />
    <path
       d="m 54.034,48.8369 c 0,0 6.2095,5.9351 9.6432,4.5476 3.4338,-1.3874 -0.1377,-1.7055 -0.1377,-1.7055 0,0 -3.5569,-0.9215 -5.6796,-5.646 -2.1228,-4.7245 -4.0106,-0.6595 -4.0106,-0.6595 z"
       fill="#5c5c5c"
       stroke="#333333"
       stroke-width="2.10601"
       stroke-miterlimit="3.99393"
       id="path14" />
    <path
       d="M 8.64774,48.696 87.4606,3.19345 c 1.225,-0.7073 2.7901,-0.30184 3.4857,0.90305 L 95.8673,12.62 12.3811,60.8207 7.61466,52.565 C 6.77058,51.2078 7.28656,49.4819 8.64774,48.696 Z"
       fill="#474747"
       id="path16" />
    <path
       d="m 14.8288,59.3961 c -0.5588,0.3226 -2.8619,2.9018 -2.3724,3.7497 0.4895,0.8479 4.1048,-0.6444 4.4482,-0.7831 0.5978,-0.2416 12.1435,-3.3815 11.0788,19.189 -1.076,21.9223 4.4454,21.5313 5.0476,21.4213 0.0453,-0.026 0.0711,0.019 0.1165,-0.007 l 3.5653,0.202 c 0.0711,0.019 0.1619,-0.034 0.233,-0.015 L 61.5804,92.3809 c 0.3433,-0.1388 0.4095,-0.6529 0.1188,-0.8421 -1.2855,-0.8643 -3.7719,-2.7609 -4.4507,-5.4035 -0.7549,-3.1937 0.6477,-4.9556 1.0499,-5.3068 0.0454,-0.0262 0.0908,-0.0524 0.1815,-0.1048 0.298,-0.1125 1.1405,-0.5394 -0.5287,-0.7062 -1.8373,-0.2483 -2.3519,-3.7592 -2.3704,-4.1056 0,0 -0.0257,-0.0446 0.0196,-0.0708 -0.0123,-0.2309 0.0377,-1.9257 1.0908,-3.6643 0.2992,-0.5297 0.2426,-1.1516 -0.1315,-1.5901 -1.1998,-1.4493 -3.3333,-4.6206 -2.0644,-7.1382 1.5422,-3.0919 6.3387,-3.4812 7.1543,-3.5355 l 18.9659,-10.95 c 0,0 1.8345,-1.1187 1.0201,-1.4815 L 80.75,47.1003 c 0,0 -0.0257,-0.0446 -0.0711,-0.0184 -0.1938,-0.1261 -1.8608,-1.1272 -4.5145,-5.7237 -2.6538,-4.5964 -0.8858,-7.4022 -0.4959,-7.9843 0.0196,-0.0708 0.1103,-0.1232 0.1557,-0.1494 l 17.6047,-10.164 c 0.2268,-0.131 0.3507,-0.4405 0.1961,-0.7083 -0.1289,-0.2231 -0.0762,-0.551 0.1961,-0.7082 l 1.3611,-0.7859 c 0.2269,-0.1309 0.5568,-0.0834 0.7114,0.1843 0.1288,0.2232 0.4392,0.3415 0.7114,0.1843 l 1.3158,-0.7597 c 0.0454,-0.0261 0.0908,-0.0523 0.1361,-0.0785 0.3115,-0.2989 1.3377,-1.6649 0.2041,-3.6284 l -2.0612,-3.57 C 96.071,12.9669 95.7607,12.8486 95.4884,13.0058 Z m 58.7927,-8.7156 -12.2507,7.0729 c 0,0 -5.9286,0.2098 -7.4745,-2.4677 l -1.1594,-2.0081 c 0,0 -2.9629,-5.132 14.0827,-14.3783 0,0 3.3722,-2.5419 6.9792,3.7057 3.6071,6.2476 -0.1773,8.0755 -0.1773,8.0755 z"
       fill="#5c5c5c"
       id="path18" />
    <path
       d="m 61.4266,59.9791 c 0.0712,0.0184 0.1619,-0.034 0.2073,-0.0602 m 11.9718,-9.2325 -12.2507,7.073 c 0,0 -5.9285,0.2098 -7.4744,-2.4677 l -1.1594,-2.0082 c 0,0 -2.963,-5.1319 14.0827,-14.3782 0,0 3.3722,-2.542 6.9792,3.7056 3.6071,6.2476 -0.1774,8.0755 -0.1774,8.0755 z"
       stroke="#333333"
       stroke-width="2.10601"
       stroke-miterlimit="3.99393"
       id="path20" />
    <path
       d="m 14.8285,59.3956 c -0.5588,0.3226 -2.8619,2.9019 -2.3724,3.7498 0.4895,0.8479 4.1048,-0.6444 4.4481,-0.7831 0.5978,-0.2416 12.1436,-3.3816 11.0788,19.189 -1.0759,21.9227 4.3566,21.4207 5.0476,21.4217 l 3.6819,0.195 c 0.0711,0.018 0.1619,-0.034 0.233,-0.016 L 61.58,92.3805 c 0.3434,-0.1388 0.4095,-0.653 0.1188,-0.8421 -1.2855,-0.8644 -3.7719,-2.7609 -4.4506,-5.4035 -0.755,-3.1937 0.6477,-4.9556 1.0499,-5.3068 0.0454,-0.0262 0.0908,-0.0524 0.1815,-0.1048 0.298,-0.1125 1.1405,-0.5394 -0.5287,-0.7062 -1.8373,-0.2483 -2.3519,-3.7592 -2.3704,-4.1056 0,0 -0.0258,-0.0446 0.0196,-0.0708 -0.0123,-0.2309 0.0376,-1.9257 1.0908,-3.6643 0.2991,-0.5297 0.2426,-1.1516 -0.1316,-1.5901 -1.1997,-1.4493 -3.3332,-4.6206 -2.0643,-7.1382 1.5422,-3.0919 6.3387,-3.4812 7.1543,-3.5356 L 80.6152,48.9626 c 0,0 1.8345,-1.1187 1.0201,-1.4815 l -0.8856,-0.3812 c 0,0 -0.0258,-0.0446 -0.0711,-0.0184 -0.1938,-0.1261 -1.8608,-1.1272 -4.5146,-5.7237 -2.6537,-4.5964 -0.8858,-7.4022 -0.4959,-7.9843 0.0196,-0.0708 0.1104,-0.1232 0.1557,-0.1494 L 93.4286,23.06 c 0.2268,-0.1309 0.3506,-0.4404 0.196,-0.7082 -0.1288,-0.2231 -0.0761,-0.551 0.1961,-0.7082 l 1.3612,-0.7859 c 0.2269,-0.1309 0.5568,-0.0834 0.7114,0.1843 0.1288,0.2232 0.4391,0.3415 0.7114,0.1843 l 1.3158,-0.7597 c 0.0453,-0.0262 0.0907,-0.0524 0.1361,-0.0785 0.3114,-0.2989 1.3377,-1.6649 0.2041,-3.6284 l -2.0612,-3.5701 c -0.1288,-0.2231 -0.4392,-0.3414 -0.7114,-0.1843 z"
       stroke="#333333"
       stroke-width="4.2141"
       stroke-miterlimit="3.99393"
       id="path22" />
    <path
       d="m 28.395,55.1289 14.5193,-8.3827 c 0.9982,-0.5763 2.2787,-0.2446 2.8455,0.7372 0.5669,0.9817 0.2139,2.2565 -0.7843,2.8328 L 30.4562,58.699 C 29.458,59.2753 28.1775,58.9435 27.6107,57.9618 27.0438,56.98 27.3968,55.7052 28.395,55.1289 Z"
       fill="#4d4d4d"
       id="path24" />
    <path
       d="m 44.9321,65.2204 7.715,-2.6692 -0.4166,-3.8651 -8.1199,1.6535 z"
       fill="#525252"
       id="path26" />
    <path
       d="m 43.4012,29.2811 c 0,0 1.9317,5.9653 5.5615,3.8696 l 9.4376,-5.4488 c 0,0 1.6284,-1.4756 0.3855,-3.7331 -1.2428,-2.2575 -1.5201,-2.6329 -1.5201,-2.6329"
       fill="#404040"
       id="path28" />
    <path
       d="m 43.4012,29.2811 c 0,0 1.9317,5.9653 5.5615,3.8696 l 9.4376,-5.4488 c 0,0 1.6284,-1.4756 0.3855,-3.7331 -1.2428,-2.2575 -1.5201,-2.6329 -1.5201,-2.6329 z"
       stroke="#333333"
       stroke-width="2.10601"
       stroke-miterlimit="3.99393"
       id="path30" />
    <path
       d="m 13.0757,48.5044 -1.814,1.0474 4.38,7.5863 1.814,-1.0473 z"
       fill="#424242"
       id="path32" />
    <path
       d="m 15.3502,47.1949 -1.8141,1.0473 4.38,7.5863 1.814,-1.0473 z"
       fill="#424242"
       id="path34" />
    <path
       d="m 17.6128,45.8843 -1.814,1.0473 4.38,7.5864 1.814,-1.0473 z"
       fill="#424242"
       id="path36" />
    <path
       d="m 19.8873,44.5747 -1.8141,1.0474 4.38,7.5863 1.8141,-1.0473 z"
       fill="#424242"
       id="path38" />
    <path
       d="m 22.1607,43.2652 -1.814,1.0473 4.38,7.5864 1.814,-1.0474 z"
       fill="#424242"
       id="path40" />
    <path
       d="m 24.4234,41.9546 -1.814,1.0474 4.38,7.5863 1.814,-1.0473 z"
       fill="#424242"
       id="path42" />
    <path
       d="m 26.6959,40.646 -1.8141,1.0474 4.38,7.5863 1.814,-1.0473 z"
       fill="#424242"
       id="path44" />
    <path
       d="m 28.9625,39.3355 -1.8141,1.0473 4.38,7.5864 1.814,-1.0474 z"
       fill="#424242"
       id="path46" />
    <path
       d="m 34.2521,72.5872 15.5499,-6.5977 3.427,24.7968 -16.3958,8.2761 c 0,0 -4.4901,-0.4422 -3.4812,-14.4123 1.0088,-13.9702 0.9001,-12.0629 0.9001,-12.0629 z"
       fill="#525252"
       id="path48" />
    <path
       d="M 8.64774,48.696 87.4606,3.19345 c 1.225,-0.7073 2.79,-0.30184 3.4857,0.90305 L 95.8673,12.62 12.3811,60.8207 7.61466,52.565 C 6.77058,51.2078 7.28656,49.4819 8.64774,48.696 Z"
       stroke="#333333"
       stroke-width="4.2141"
       stroke-miterlimit="3.99393"
       id="path50" />
    <path
       d="m 44.7578,31.8912 c 0.9151,1.2461 2.2877,2.276 4.0882,1.3196 l 0.0022,0.0018 -9.9468,5.7427 c -0.9528,0.5501 -2.1106,0.3261 -2.5486,-0.4326 -0.4638,-0.8032 -0.0531,-1.8733 0.8997,-2.4234 l 6.1253,-3.5365 c 0.3411,-0.1969 0.8487,-0.4555 1.38,-0.6716 z"
       fill="#4f4f4f"
       stroke="#333333"
       stroke-width="2.10705"
       stroke-miterlimit="3.99393"
       id="path52" />
  </g>
  <defs
     id="defs59">
    <clipPath
       id="clip0_619_1202">
      <rect
         width="110"
         height="110"
         fill="white"
         id="rect56" />
    </clipPath>
  </defs>
</svg>

<svg width="110" height="110" viewBox="0 0 110 110" fill="none" xmlns="http://www.w3.org/2000/svg">
<g clip-path="url(#clip0_619_1202)">
<path d="M92.488 2.65871L89.7656 4.23047L93.3727 10.4781L96.0951 8.90629L92.488 2.65871Z" fill="#5C5C5C" stroke="#333333" stroke-width="4.2141" stroke-miterlimit="3.99393"/>
<path d="M96.2997 11.8821L94.9385 12.668L95.9175 14.3637L97.2787 13.5779L96.2997 11.8821Z" fill="#5C5C5C" stroke="#333333" stroke-width="4.2141" stroke-miterlimit="3.99393"/>
<path d="M10.5604 45.1936L12.33 44.172L15.1641 49.0808L11.0027 49.1033L10.5604 45.1936Z" fill="#5C5C5C" stroke="#333333" stroke-width="4.2141" stroke-miterlimit="3.99393"/>
<path d="M54.5844 49.8813L54.6264 51.1066C54.651 51.5683 55.1355 51.8836 55.5696 51.6925L57.403 50.991C57.5391 50.9124 57.7268 50.9231 57.8948 51.0045C59.0392 51.4149 64.2776 52.734 66.274 51.5814C68.5426 50.2716 61.5189 50.9947 61.5189 50.9947C61.5189 50.9947 61.2741 52.9806 56.1097 48.2271C51.365 43.8859 53.9857 48.7394 54.4752 49.5873C54.5267 49.6766 54.5782 49.7658 54.5844 49.8813Z" fill="#4D4D4D" stroke="#333333" stroke-width="2.10601" stroke-miterlimit="3.99393"/>
<path d="M84.9502 6.41191L83.858 3.47241L85.5368 2.50316L88.1493 3.25588C88.505 3.34803 88.6008 3.82825 88.2378 4.03781L84.9502 6.41191Z" fill="#5C5C5C" stroke="#333333" stroke-width="4.2141" stroke-miterlimit="3.99393"/>
<path d="M39.9288 100.239L39.4883 105.134C39.4883 105.134 37.9679 107.321 40.4942 106.457C43.0205 105.594 58.0552 98.1036 58.0552 98.1036C58.0552 98.1036 59.6124 96.6095 58.8395 95.2708L56.8814 91.8792L39.9288 100.239Z" fill="#525252" stroke="#333333" stroke-width="4.2141" stroke-miterlimit="3.99393"/>
<path d="M54.034 48.8369C54.034 48.8369 60.2435 54.772 63.6772 53.3845C67.111 51.9971 63.5395 51.679 63.5395 51.679C63.5395 51.679 59.9826 50.7575 57.8599 46.033C55.7371 41.3085 53.8493 45.3735 53.8493 45.3735L54.034 48.8369Z" fill="#5C5C5C" stroke="#333333" stroke-width="2.10601" stroke-miterlimit="3.99393"/>
<path d="M8.64774 48.696L87.4606 3.19345C88.6856 2.48615 90.2507 2.89161 90.9463 4.0965L95.8673 12.62L12.3811 60.8207L7.61466 52.565C6.77058 51.2078 7.28656 49.4819 8.64774 48.696Z" fill="#474747"/>
<path d="M14.8288 59.3961C14.27 59.7187 11.9669 62.2979 12.4564 63.1458C12.9459 63.9937 16.5612 62.5014 16.9046 62.3627C17.5024 62.1211 29.0481 58.9812 27.9834 81.5517C26.9074 103.474 32.4288 103.083 33.031 102.973C33.0763 102.947 33.1021 102.992 33.1475 102.966L36.7128 103.168C36.7839 103.187 36.8747 103.134 36.9458 103.153L61.5804 92.3809C61.9237 92.2421 61.9899 91.728 61.6992 91.5388C60.4137 90.6745 57.9273 88.7779 57.2485 86.1353C56.4936 82.9416 57.8962 81.1797 58.2984 80.8285C58.3438 80.8023 58.3892 80.7761 58.4799 80.7237C58.7779 80.6112 59.6204 80.1843 57.9512 80.0175C56.1139 79.7692 55.5993 76.2583 55.5808 75.9119C55.5808 75.9119 55.5551 75.8673 55.6004 75.8411C55.5881 75.6102 55.6381 73.9154 56.6912 72.1768C56.9904 71.6471 56.9338 71.0252 56.5597 70.5867C55.3599 69.1374 53.2264 65.9661 54.4953 63.4485C56.0375 60.3566 60.834 59.9673 61.6496 59.913L80.6155 48.963C80.6155 48.963 82.45 47.8443 81.6356 47.4815L80.75 47.1003C80.75 47.1003 80.7243 47.0557 80.6789 47.0819C80.4851 46.9558 78.8181 45.9547 76.1644 41.3582C73.5106 36.7618 75.2786 33.956 75.6685 33.3739C75.6881 33.3031 75.7788 33.2507 75.8242 33.2245L93.4289 23.0605C93.6557 22.9295 93.7796 22.62 93.625 22.3522C93.4961 22.1291 93.5488 21.8012 93.8211 21.644L95.1822 20.8581C95.4091 20.7272 95.739 20.7747 95.8936 21.0424C96.0224 21.2656 96.3328 21.3839 96.605 21.2267L97.9208 20.467C97.9662 20.4409 98.0116 20.4147 98.0569 20.3885C98.3684 20.0896 99.3946 18.7236 98.261 16.7601L96.1998 13.1901C96.071 12.9669 95.7607 12.8486 95.4884 13.0058L14.8288 59.3961ZM73.6215 50.6805L61.3708 57.7534C61.3708 57.7534 55.4422 57.9632 53.8963 55.2857L52.7369 53.2776C52.7369 53.2776 49.774 48.1456 66.8196 38.8993C66.8196 38.8993 70.1918 36.3574 73.7988 42.605C77.4059 48.8526 73.6215 50.6805 73.6215 50.6805Z" fill="#5C5C5C"/>
<path d="M61.4266 59.9791C61.4978 59.9975 61.5885 59.9451 61.6339 59.9189M73.6057 50.6864L61.355 57.7594C61.355 57.7594 55.4265 57.9692 53.8806 55.2917L52.7212 53.2835C52.7212 53.2835 49.7582 48.1516 66.8039 38.9053C66.8039 38.9053 70.1761 36.3633 73.7831 42.6109C77.3902 48.8585 73.6057 50.6864 73.6057 50.6864Z" stroke="#333333" stroke-width="2.10601" stroke-miterlimit="3.99393"/>
<path d="M14.8285 59.3956C14.2697 59.7182 11.9666 62.2975 12.4561 63.1454C12.9456 63.9933 16.5609 62.501 16.9042 62.3623C17.502 62.1207 29.0478 58.9807 27.983 81.5513C26.9071 103.474 32.3396 102.972 33.0306 102.973L36.7125 103.168C36.7836 103.186 36.8744 103.134 36.9455 103.152L61.58 92.3805C61.9234 92.2417 61.9895 91.7275 61.6988 91.5384C60.4133 90.674 57.9269 88.7775 57.2482 86.1349C56.4932 82.9412 57.8959 81.1793 58.2981 80.8281C58.3435 80.8019 58.3889 80.7757 58.4796 80.7233C58.7776 80.6108 59.6201 80.1839 57.9509 80.0171C56.1136 79.7688 55.599 76.2579 55.5805 75.9115C55.5805 75.9115 55.5547 75.8669 55.6001 75.8407C55.5878 75.6098 55.6377 73.915 56.6909 72.1764C56.99 71.6467 56.9335 71.0248 56.5593 70.5863C55.3596 69.137 53.2261 65.9657 54.495 63.4481C56.0372 60.3562 60.8337 59.9669 61.6493 59.9125L80.6152 48.9626C80.6152 48.9626 82.4497 47.8439 81.6353 47.4811L80.7497 47.0999C80.7497 47.0999 80.7239 47.0553 80.6786 47.0815C80.4848 46.9554 78.8178 45.9543 76.164 41.3578C73.5103 36.7614 75.2782 33.9556 75.6681 33.3735C75.6877 33.3027 75.7785 33.2503 75.8238 33.2241L93.4286 23.06C93.6554 22.9291 93.7792 22.6196 93.6246 22.3518C93.4958 22.1287 93.5485 21.8008 93.8207 21.6436L95.1819 20.8577C95.4088 20.7268 95.7387 20.7743 95.8933 21.042C96.0221 21.2652 96.3324 21.3835 96.6047 21.2263L97.9205 20.4666C97.9658 20.4404 98.0112 20.4142 98.0566 20.3881C98.368 20.0892 99.3943 18.7232 98.2607 16.7597L96.1995 13.1896C96.0707 12.9665 95.7603 12.8482 95.4881 13.0053L14.8285 59.3956Z" stroke="#333333" stroke-width="4.2141" stroke-miterlimit="3.99393"/>
<path d="M28.395 55.1289L42.9143 46.7462C43.9125 46.1699 45.193 46.5016 45.7598 47.4834C46.3267 48.4651 45.9737 49.7399 44.9755 50.3162L30.4562 58.699C29.458 59.2753 28.1775 58.9435 27.6107 57.9618C27.0438 56.98 27.3968 55.7052 28.395 55.1289Z" fill="#4D4D4D"/>
<path d="M44.9321 65.2204L52.6471 62.5512L52.2305 58.6861L44.1106 60.3396L44.9321 65.2204Z" fill="#525252"/>
<path d="M43.4012 29.2811C43.4012 29.2811 45.3329 35.2464 48.9627 33.1507L58.4003 27.7019C58.4003 27.7019 60.0287 26.2263 58.7858 23.9688C57.543 21.7113 57.2657 21.3359 57.2657 21.3359" fill="#404040"/>
<path d="M43.4012 29.2811C43.4012 29.2811 45.3329 35.2464 48.9627 33.1507L58.4003 27.7019C58.4003 27.7019 60.0287 26.2263 58.7858 23.9688C57.543 21.7113 57.2657 21.3359 57.2657 21.3359L43.4012 29.2811Z" stroke="#333333" stroke-width="2.10601" stroke-miterlimit="3.99393"/>
<path d="M13.0757 48.5044L11.2617 49.5518L15.6417 57.1381L17.4557 56.0908L13.0757 48.5044Z" fill="#424242"/>
<path d="M15.3502 47.1949L13.5361 48.2422L17.9161 55.8285L19.7301 54.7812L15.3502 47.1949Z" fill="#424242"/>
<path d="M17.6128 45.8843L15.7988 46.9316L20.1788 54.518L21.9928 53.4707L17.6128 45.8843Z" fill="#424242"/>
<path d="M19.8873 44.5747L18.0732 45.6221L22.4532 53.2084L24.2673 52.1611L19.8873 44.5747Z" fill="#424242"/>
<path d="M22.1607 43.2652L20.3467 44.3125L24.7267 51.8989L26.5407 50.8515L22.1607 43.2652Z" fill="#424242"/>
<path d="M24.4234 41.9546L22.6094 43.002L26.9894 50.5883L28.8034 49.541L24.4234 41.9546Z" fill="#424242"/>
<path d="M26.6959 40.646L24.8818 41.6934L29.2618 49.2797L31.0758 48.2324L26.6959 40.646Z" fill="#424242"/>
<path d="M28.9625 39.3355L27.1484 40.3828L31.5284 47.9692L33.3424 46.9218L28.9625 39.3355Z" fill="#424242"/>
<path d="M34.2521 72.5872L49.802 65.9895L53.229 90.7863L36.8332 99.0624C36.8332 99.0624 32.3431 98.6202 33.352 84.6501C34.3608 70.6799 34.2521 72.5872 34.2521 72.5872Z" fill="#525252"/>
<path d="M8.64774 48.696L87.4606 3.19345C88.6856 2.48615 90.2506 2.89161 90.9463 4.0965L95.8673 12.62L12.3811 60.8207L7.61466 52.565C6.77058 51.2078 7.28656 49.4819 8.64774 48.696Z" stroke="#333333" stroke-width="4.2141" stroke-miterlimit="3.99393"/>
<path d="M44.7578 31.8912C45.6729 33.1373 47.0455 34.1672 48.846 33.2108L48.8482 33.2126L38.9014 38.9553C37.9486 39.5054 36.7908 39.2814 36.3528 38.5227C35.889 37.7195 36.2997 36.6494 37.2525 36.0993L43.3778 32.5628C43.7189 32.3659 44.2265 32.1073 44.7578 31.8912Z" fill="#4F4F4F" stroke="#333333" stroke-width="2.10705" stroke-miterlimit="3.99393"/>
</g>
<defs>
<clipPath id="clip0_619_1202">
<rect width="110" height="110" fill="white"/>
</clipPath>
</defs>
</svg>
